X:1
T:Title
%%score 1 { 2 | ( 3 4 ) }
L:1/8
Q:1/4=120
M:6/4
K:F
V:1 treble nm="Viola, Soprano"
V:2 treble nm="Choir Pad, Drifting, Eliza Hewitt, 1917"
V:3 bass 
V:4 bass 
V:1
 A4 A2 B2 A2 F2 | A4 G2 F6 | F4 F2 G2 F2 D2 | D4 =B,2 C6 | E4 F2 G2 F2 G2 | A4 A2 B2 F2 G2 | %6
w: By~Bentley~DeForest~Ackley * * * *||||||
 A4 _A2 =A2 F2 G2 | F12 | G2 .G4 D2 .F2 B2 | A4 A2 F6 | A4 G2 D2 E2 F2 | A4 G2 E4 D2 | %12
w: ||||||
 C2 D2 C2 C2 D2 C2 | F2 A2 c2 B2 F2 G2 | A4 _A2 =A2 F2 G2 | F12 |] %16
w: ||||
V:2
 C4 C2 D2 C2 A,2 | C4 B,2 A,6 | D4 D2 D2 D2[K:bass] B,2 | B,4 _A,2 =A,6 | G,4 A,2 B,2 A,2 B,2 | %5
 C2 F2 _E2 D4 ^C2 | C4[K:bass] =B,2 C2 A,2 _B,2 | A,12 | D2 .D4 B,2 .D2 D2 | C4 C2[K:bass] A,6 | %10
 =B,4 B,2 B,2 B,2 B,2 | C4 B,2 B,6 | A,2 A,2 A,2 B,2 B,2 B,2 | A,2[K:treble] C2 _E2 .D6 | %14
 C4 =B,2 C2 A,2 _B,2 | A,12 |] %16
V:3
 F,12 | C,2 D,2 E,2 F,6 | B,,6 .B,6 | F,6 [F,,D,]6 | C,6 C,2 D,2 E,2 | F,4 F,,2 B,,6 | %6
 C,4 ^C,2 =C,4 C,2 | F,,2 A,,2 C,2 F,6 | .B,,6 B,,6 | F,,6 F,6 | G,,4 D,2 F,2 E,2 D,2 | %11
 C,4 E,2 G,4 E,2 | F,6 G,6 | z6 z2 B,4 | C,4 ^C,2 =C,4 C,,2 | [F,,F,]12 |] %16
V:4
 x12 | x12 | x12 | x12 | x12 | x12 | x12 | x12 | x12 | x12 | x12 | x12 | x12 | z4 A,,2 .C,4 ^C2 | %14
 x12 | x12 |] %16

